app/component-library/components/Icons/Icon/assets/gas.svg

<svg width="24" height="24" viewBox="0 0 24 24" fill="none" xmlns="http://www.w3.org/2000/svg">
<path d="M22.6208 9.33L20.6208 8.33C20.2508 8.15 19.7908 8.29 19.6108 8.66C19.4208 9.04 19.5708 9.49 19.9408 9.67L21.5308 10.46V15.25L17.7808 15.26V5C17.7808 3 16.4408 2 14.7808 2H6.78076C5.12076 2 3.78076 3 3.78076 5V21.25H2.28076C1.87076 21.25 1.53076 21.59 1.53076 22C1.53076 22.41 1.87076 22.75 2.28076 22.75H19.2808C19.6908 22.75 20.0308 22.41 20.0308 22C20.0308 21.59 19.6908 21.25 19.2808 21.25H17.7808V16.76L22.2808 16.75C22.7008 16.75 23.0308 16.41 23.0308 16V10C23.0308 9.72 22.8708 9.46 22.6208 9.33ZM6.28076 6.89C6.28076 5.5 7.13076 5 8.17076 5H13.4008C14.4308 5 15.2808 5.5 15.2808 6.89V8.12C15.2808 9.5 14.4308 10 13.3908 10H8.17076C7.13076 10 6.28076 9.5 6.28076 8.11V6.89ZM6.78076 12.25H9.78076C10.1908 12.25 10.5308 12.59 10.5308 13C10.5308 13.41 10.1908 13.75 9.78076 13.75H6.78076C6.37076 13.75 6.03076 13.41 6.03076 13C6.03076 12.59 6.37076 12.25 6.78076 12.25Z" fill="currentColor"/>
</svg>

<svg xmlns="http://www.w3.org/2000/svg" width="24" height="24" viewBox="0 0 24 24" fill="none"><path d="m22.62 9.33-2-1c-.37-.18-.83-.04-1.01.33-.19.38-.04.83.33 1.01l1.59.79v4.79l-3.75.01V5c0-2-1.34-3-3-3h-8c-1.66 0-3 1-3 3v16.25h-1.5c-.41 0-.75.34-.75.75s.34.75.75.75h17c.41 0 .75-.34.75-.75s-.34-.75-.75-.75h-1.5v-4.49l4.5-.01c.42 0 .75-.34.75-.75v-6a.76.76 0 0 0-.41-.67zM6.28 6.89C6.28 5.5 7.13 5 8.17 5h5.23c1.03 0 1.88.5 1.88 1.89v1.23c0 1.38-.85 1.88-1.89 1.88H8.17c-1.04 0-1.89-.5-1.89-1.89V6.89zm.5 5.36h3c.41 0 .75.34.75.75s-.34.75-.75.75h-3c-.41 0-.75-.34-.75-.75s.34-.75.75-.75z" fill="currentColor"/></svg>
